themes/orange/logout.svg

<?xml version="1.0" encoding="UTF-8" standalone="no"?>
<svg
   width="201.08699"
   height="256.00021"
   viewBox="0 0 201.08699 256.00021"
   version="1.1"
   id="svg11"
   sodipodi:docname="logout.svg"
   inkscape:version="1.3.2 (091e20ef0f, 2023-11-25, custom)"
   xmlns:inkscape="http://www.inkscape.org/namespaces/inkscape"
   xmlns:sodipodi="http://sodipodi.sourceforge.net/DTD/sodipodi-0.dtd"
   xmlns="http://www.w3.org/2000/svg"
   xmlns:svg="http://www.w3.org/2000/svg"
   xmlns:rdf="http://www.w3.org/1999/02/22-rdf-syntax-ns#"
   xmlns:cc="http://creativecommons.org/ns#"
   xmlns:dc="http://purl.org/dc/elements/1.1/">
  <metadata
     id="metadata15">
    <rdf:RDF>
      <cc:Work
         rdf:about="">
        <dc:format>image/svg+xml</dc:format>
        <dc:type
           rdf:resource="http://purl.org/dc/dcmitype/StillImage" />
        <dc:title>pane-hide</dc:title>
      </cc:Work>
    </rdf:RDF>
  </metadata>
  <sodipodi:namedview
     pagecolor="#ffffff"
     bordercolor="#666666"
     borderopacity="1"
     objecttolerance="10"
     gridtolerance="10"
     guidetolerance="10"
     inkscape:pageopacity="0"
     inkscape:pageshadow="2"
     inkscape:window-width="3440"
     inkscape:window-height="1364"
     id="namedview13"
     showgrid="false"
     inkscape:pagecheckerboard="true"
     inkscape:zoom="1.7383042"
     inkscape:cx="-261.17408"
     inkscape:cy="182.074"
     inkscape:window-x="0"
     inkscape:window-y="40"
     inkscape:window-maximized="1"
     inkscape:current-layer="svg11"
     inkscape:showpageshadow="2"
     inkscape:deskcolor="#d1d1d1" />
  <!-- Generator: Sketch 51.3 (57544) - http://www.bohemiancoding.com/sketch -->
  <title
     id="title2">pane-hide</title>
  <desc
     id="desc4">Created with Sketch.</desc>
  <defs
     id="defs6" />
  <g
     id="pane-hide"
     style="fill:#ff9221;fill-rule:evenodd;stroke:none;stroke-width:1"
     transform="matrix(18.280636,0,0,18.280636,-109.68382,-91.40318)">
    <g
       id="259"
       transform="translate(6,5)"
       style="fill:#ff9221;fill-rule:nonzero">
      <path
         d="m 1,0 v 1.0019531 l 9,0.00195 V 13.003906 H 1 V 14 l 10,0.0039 V 0.0039062 Z m 3,4.0039062 v 2 H 0 v 1 H 4 V 9.003906 L 8,6.5039061 Z"
         id="Shape"
         style="fill:#ff9221"
         inkscape:connector-curvature="0" />
    </g>
  </g>
</svg>

<?xml version="1.0" encoding="UTF-8"?>
<svg width="24px" height="24px" version="1.1" viewBox="0 0 24 24" xmlns="http://www.w3.org/2000/svg" xmlns:cc="http://creativecommons.org/ns#" xmlns:dc="http://purl.org/dc/elements/1.1/" xmlns:rdf="http://www.w3.org/1999/02/22-rdf-syntax-ns#">
 <metadata>
  <rdf:RDF>
   <cc:Work rdf:about="">
    <dc:format>image/svg+xml</dc:format>
    <dc:type rdf:resource="http://purl.org/dc/dcmitype/StillImage"/>
    <dc:title>pane-hide</dc:title>
   </cc:Work>
  </rdf:RDF>
 </metadata>
 <!-- Generator: Sketch 51.3 (57544) - http://www.bohemiancoding.com/sketch -->
 <title>pane-hide</title>
 <desc>Created with Sketch.</desc>
 <g id="pane-hide" fill="#ff9221" fill-rule="evenodd">
  <g transform="translate(6 5)" fill="#ff9221" fill-rule="nonzero">
   <path id="Shape" d="m1 0v1.002l9 0.0019531v12h-9v0.99609l10 0.003906v-14l-10-0.0039062zm3 4.0039v2h-4v1h4v2l4-2.5-4-2.5z" fill="#ff9221"/>
  </g>
 </g>
</svg>
